assets/images/icons/phone.svg

<svg width="40" height="40" viewBox="0 0 40 40" fill="none" xmlns="http://www.w3.org/2000/svg">
<g clip-path="url(#clip0_228_4030)">
<path opacity="0.1" d="M0.278944 28.9522C-0.0736318 25.9401 -0.122607 22.9843 0.310078 20.3101C0.84212 17.0218 2.23117 13.3636 3.74867 10.092C6.71454 3.69799 12.0239 1.46106 18.489 0.452582C27.5008 -0.953153 39.9215 0.452613 40 11.3589C39.5479 15.2591 36.5646 26.1018 26.4939 26.9292C23.1642 27.2028 21.9185 30.5473 20.4515 34.3758C16.5911 44.4503 1.56969 39.9794 0.278944 28.9522Z" fill="#7FB51F"/>
<path d="M28.7578 18.5193C28.7874 15.0444 25.8278 11.8588 22.1604 11.4183C22.0874 11.4096 22.008 11.3965 21.9238 11.3825C21.7423 11.3525 21.5545 11.3215 21.3651 11.3215C20.6134 11.3215 20.4125 11.8495 20.3596 12.1644C20.3082 12.4706 20.3572 12.7277 20.5052 12.9289C20.7541 13.2674 21.1921 13.3275 21.5439 13.3756C21.647 13.3899 21.7443 13.4031 21.8257 13.4214C25.1207 14.1577 26.2302 15.3152 26.7725 18.5822C26.7857 18.6621 26.7917 18.7604 26.798 18.8648C26.8217 19.2553 26.871 20.0678 27.7445 20.0678H27.7446C27.8173 20.0678 27.8954 20.0615 27.9768 20.0491C28.7902 19.9255 28.7647 19.1828 28.7525 18.826C28.749 18.7255 28.7457 18.6304 28.7542 18.5672C28.7565 18.5512 28.7577 18.5353 28.7578 18.5193Z" fill="#7FB51F"/>
<path d="M21.152 10.1427C21.2496 10.1498 21.342 10.1565 21.4189 10.1683C26.8297 11.0004 29.318 13.564 30.0076 19.0171C30.0193 19.1098 30.0211 19.2228 30.0231 19.3425C30.0299 19.7686 30.0441 20.6549 30.9959 20.6732L31.0255 20.6735C31.324 20.6735 31.5614 20.5835 31.7313 20.4058C32.0276 20.0959 32.0069 19.6355 31.9902 19.2654C31.9862 19.1747 31.9822 19.0892 31.9832 19.0143C32.0521 13.4372 27.2245 8.37996 21.6524 8.1919C21.6293 8.19113 21.6072 8.19236 21.585 8.1955C21.574 8.1971 21.5537 8.19909 21.519 8.19909C21.4634 8.19909 21.3951 8.19427 21.3226 8.18937C21.2349 8.1834 21.1356 8.17651 21.0348 8.17651C20.1475 8.17651 19.9788 8.80723 19.9572 9.18321C19.9074 10.0521 20.748 10.1133 21.152 10.1427Z" fill="#7FB51F"/>
<path d="M29.7471 26.0648C29.632 25.9769 29.5131 25.886 29.4017 25.7963C28.8109 25.3208 28.1824 24.8826 27.5746 24.4588C27.4485 24.371 27.3223 24.283 27.1966 24.1948C26.418 23.6479 25.7181 23.3822 25.0567 23.3822C24.166 23.3822 23.3894 23.8743 22.7484 24.8448C22.4644 25.2751 22.1199 25.4843 21.6953 25.4843C21.4443 25.4843 21.159 25.4126 20.8476 25.2712C18.3344 24.1316 16.5399 22.3843 15.5137 20.0778C15.0176 18.963 15.1784 18.2343 16.0515 17.6413C16.5472 17.3048 17.47 16.6784 17.4047 15.4788C17.3306 14.1166 14.3249 10.0178 13.0585 9.55223C12.5224 9.35506 11.959 9.35322 11.3811 9.54764C9.92526 10.0371 8.88052 10.8966 8.35957 12.0331C7.85615 13.1312 7.87888 14.4207 8.42532 15.762C10.005 19.6401 12.226 23.0213 15.0268 25.8116C17.7682 28.5429 21.1377 30.7803 25.0416 32.4612C25.3934 32.6126 25.7625 32.6952 26.032 32.7555C26.1239 32.7761 26.2032 32.7937 26.261 32.8096C26.2927 32.8182 26.3255 32.8229 26.3583 32.8232L26.3892 32.8234C26.3892 32.8234 26.3892 32.8234 26.3893 32.8234C28.2255 32.8234 30.4301 31.1455 31.1072 29.2327C31.7004 27.5578 30.6173 26.7299 29.7471 26.0648Z" fill="#7FB51F"/>
<path d="M21.9654 14.5727C21.651 14.5807 20.9968 14.5969 20.7673 15.2632C20.6599 15.5746 20.6727 15.8449 20.8055 16.0667C21.0004 16.3922 21.3738 16.4919 21.7134 16.5467C22.9451 16.7443 23.5776 17.4254 23.7041 18.6899C23.7629 19.2795 24.16 19.6912 24.6697 19.6912C24.7074 19.6912 24.746 19.689 24.7843 19.6843C25.3974 19.6114 25.6946 19.1609 25.6678 18.3456C25.6776 17.4946 25.2323 16.5286 24.4749 15.7591C23.7149 14.9872 22.7987 14.5526 21.9654 14.5727Z" fill="#7FB51F"/>
</g>
<defs>
<clipPath id="clip0_228_4030">
<rect width="40" height="40" fill="white"/>
</clipPath>
</defs>
</svg>

<svg xmlns="http://www.w3.org/2000/svg" width="40" height="40" fill="none"><g fill="#7FB51F" clip-path="url(#a)"><path d="M.279 28.952c-.353-3.012-.402-5.968.031-8.642.532-3.288 1.921-6.946 3.439-10.218 2.966-6.394 8.275-8.63 14.74-9.64C27.501-.952 39.922.453 40 11.36c-.452 3.9-3.435 14.743-13.506 15.57-3.33.274-4.575 3.618-6.042 7.447C16.592 44.45 1.57 39.979.279 28.952" opacity=".1"/><path d="M28.758 18.52c.03-3.476-2.93-6.661-6.598-7.102a5 5 0 0 1-.236-.035 3.4 3.4 0 0 0-.559-.061c-.752 0-.952.528-1.005.842q-.078.462.145.765c.25.338.687.399 1.039.447.103.014.2.027.282.045 3.295.737 4.404 1.894 4.947 5.161.013.08.019.178.025.283.024.39.073 1.203.947 1.203q.108 0 .232-.019c.813-.123.788-.866.776-1.223a2 2 0 0 1 .005-.307"/><path d="M21.152 10.143c.098.007.19.013.267.025 5.41.832 7.899 3.396 8.589 8.85.011.092.013.205.015.325.007.426.021 1.312.973 1.33h.03q.448 0 .705-.267c.297-.31.276-.77.26-1.14q-.009-.138-.008-.252c.07-5.577-4.759-10.634-10.33-10.822q-.036 0-.068.003l-.066.004q-.086-.001-.196-.01a4 4 0 0 0-.288-.012c-.887 0-1.056.63-1.078 1.006-.05.87.791.93 1.195.96m8.595 15.922a17 17 0 0 1-.345-.269c-.591-.475-1.22-.913-1.827-1.337l-.378-.264c-.779-.547-1.479-.813-2.14-.813-.891 0-1.668.492-2.309 1.463-.284.43-.628.64-1.053.64-.25 0-.536-.072-.847-.214-2.514-1.14-4.308-2.887-5.334-5.193-.496-1.115-.336-1.844.538-2.437.495-.336 1.418-.963 1.353-2.162-.074-1.362-3.08-5.461-4.347-5.927-.536-.197-1.099-.199-1.677-.004-1.456.49-2.5 1.349-3.021 2.485-.504 1.098-.481 2.388.065 3.729 1.58 3.878 3.801 7.26 6.602 10.05 2.741 2.73 6.11 4.968 10.015 6.65.351.15.72.233.99.293q.14.031.229.055a.4.4 0 0 0 .097.013h.031c1.837 0 4.041-1.678 4.718-3.59.593-1.675-.49-2.503-1.36-3.168m-7.782-11.492c-.314.008-.968.024-1.198.69q-.16.47.038.804c.195.325.569.425.908.48 1.232.197 1.865.878 1.991 2.143.059.59.456 1.001.966 1.001a1 1 0 0 0 .114-.007c.613-.073.91-.523.884-1.338.01-.851-.436-1.817-1.193-2.587-.76-.772-1.676-1.206-2.51-1.186"/></g><defs><clipPath id="a"><path fill="#fff" d="M0 0h40v40H0z"/></clipPath></defs></svg>
